data/status/weather-overcast-small.svg

<?xml version="1.0" encoding="UTF-8"?>
<svg xmlns="http://www.w3.org/2000/svg" xmlns:xlink="http://www.w3.org/1999/xlink" width="64px" height="64px" viewBox="0 0 64 64" version="1.1">
<defs>
<linearGradient id="linear0" gradientUnits="userSpaceOnUse" x1="7.164" y1="86.174004" x2="120" y2="86.174004" gradientTransform="matrix(0.5,0,0,0.5,0,0)">
<stop offset="0" style="stop-color:rgb(86.274511%,91.764706%,98.039216%);stop-opacity:1;"/>
<stop offset="0.081" style="stop-color:rgb(92.941177%,95.686275%,99.215686%);stop-opacity:1;"/>
<stop offset="0.151" style="stop-color:rgb(76.47059%,85.882354%,96.470588%);stop-opacity:1;"/>
<stop offset="0.793" style="stop-color:rgb(86.274511%,91.764706%,98.039216%);stop-opacity:1;"/>
<stop offset="0.917" style="stop-color:rgb(94.509804%,96.862745%,99.215686%);stop-opacity:1;"/>
<stop offset="1" style="stop-color:rgb(86.274511%,91.764706%,98.039216%);stop-opacity:1;"/>
</linearGradient>
<linearGradient id="linear1" gradientUnits="userSpaceOnUse" x1="63.581001" y1="110.501999" x2="63.581001" y2="79.888" gradientTransform="matrix(0.5,0,0,0.5,0,0)">
<stop offset="0" style="stop-color:rgb(92.941177%,96.470588%,98.823529%);stop-opacity:1;"/>
<stop offset="1" style="stop-color:rgb(98.039216%,98.823529%,99.607843%);stop-opacity:1;"/>
</linearGradient>
<linearGradient id="linear2" gradientUnits="userSpaceOnUse" x1="7.164" y1="86.174004" x2="120" y2="86.174004" gradientTransform="matrix(0.5,0,0,0.5,0,0)">
<stop offset="0" style="stop-color:rgb(86.274511%,91.764706%,98.039216%);stop-opacity:1;"/>
<stop offset="0.081" style="stop-color:rgb(92.941177%,95.686275%,99.215686%);stop-opacity:1;"/>
<stop offset="0.151" style="stop-color:rgb(76.47059%,85.882354%,96.470588%);stop-opacity:1;"/>
<stop offset="0.793" style="stop-color:rgb(86.274511%,91.764706%,98.039216%);stop-opacity:1;"/>
<stop offset="0.917" style="stop-color:rgb(94.509804%,96.862745%,99.215686%);stop-opacity:1;"/>
<stop offset="1" style="stop-color:rgb(86.274511%,91.764706%,98.039216%);stop-opacity:1;"/>
</linearGradient>
</defs>
<g id="surface1">
<path style=" stroke:none;fill-rule:nonzero;fill:url(#linear0);" d="M 39.746094 27.175781 C 34.097656 27.179688 28.964844 30.476562 26.613281 35.613281 C 25.082031 34.824219 23.386719 34.410156 21.664062 34.40625 C 15.957031 34.414062 11.230469 38.839844 10.851562 44.535156 C 10.839844 44.535156 10.828125 44.535156 10.816406 44.53125 C 7.847656 44.53125 5.304688 46.320312 4.1875 48.871094 L 3.582031 48.871094 L 3.582031 49.5 C 3.582031 55 7.5 59 13 59 L 49 59 C 56 59 60 54.5 60 48 L 60 47.425781 L 59.488281 47.425781 C 58.613281 44.953125 56.664062 43.007812 54.1875 42.136719 C 54.199219 41.972656 54.207031 41.804688 54.210938 41.640625 C 54.210938 33.652344 47.738281 27.175781 39.746094 27.175781 Z M 39.746094 27.175781 "/>
<path style=" stroke:none;fill-rule:nonzero;fill:url(#linear1);" d="M 39.746094 24.03125 C 34.097656 24.039062 28.96875 27.332031 26.613281 32.46875 C 25.082031 31.679688 23.386719 31.265625 21.664062 31.261719 C 15.957031 31.269531 11.230469 35.695312 10.851562 41.390625 C 10.839844 41.390625 10.828125 41.390625 10.816406 41.390625 C 6.820312 41.390625 3.578125 44.628906 3.578125 48.621094 C 3.578125 52.617188 6.820312 55.855469 10.816406 55.855469 L 51.320312 55.855469 C 56.113281 55.855469 60 51.96875 60 47.175781 C 59.996094 43.492188 57.664062 40.210938 54.1875 38.992188 C 54.199219 38.828125 54.207031 38.664062 54.210938 38.496094 C 54.210938 30.507812 47.738281 24.03125 39.746094 24.03125 Z M 39.746094 24.03125 "/>
<path style=" stroke:none;fill-rule:nonzero;fill:url(#linear2);" d="M 39.746094 23.03125 C 34.097656 23.039062 28.96875 26.332031 26.613281 31.46875 C 25.082031 30.679688 23.386719 30.265625 21.664062 30.261719 C 15.957031 30.269531 11.230469 34.695312 10.851562 40.390625 C 10.839844 40.390625 10.828125 40.390625 10.816406 40.390625 C 6.820312 40.390625 3.578125 43.628906 3.578125 47.621094 C 3.578125 47.792969 3.59375 47.957031 3.605469 48.121094 C 3.863281 44.363281 6.988281 41.390625 10.816406 41.390625 C 10.824219 41.390625 10.839844 41.390625 10.851562 41.390625 C 11.230469 35.695312 15.957031 31.269531 21.664062 31.261719 C 23.386719 31.265625 25.082031 31.679688 26.613281 32.46875 C 28.964844 27.332031 34.097656 24.035156 39.746094 24.03125 C 47.511719 24.03125 53.84375 30.148438 54.195312 37.824219 C 54.203125 37.714844 54.210938 37.605469 54.214844 37.496094 C 54.214844 29.507812 47.738281 23.03125 39.746094 23.03125 Z M 54.199219 38 C 54.207031 38.164062 54.214844 38.332031 54.214844 38.496094 C 54.207031 38.660156 54.199219 38.828125 54.1875 38.992188 C 57.472656 40.144531 59.75 43.144531 59.976562 46.617188 C 59.984375 46.472656 60 46.328125 60 46.179688 C 59.996094 42.496094 57.671875 39.21875 54.199219 38 Z M 54.199219 38 "/>
</g>
</svg>

<?xml version="1.0" encoding="UTF-8"?>
<svg width="64" height="64" version="1.1" viewBox="0 0 64 64" xmlns="http://www.w3.org/2000/svg">
    <linearGradient id="a" x1="63.581" x2="63.581" y1="110.5" y2="79.888" gradientTransform="matrix(.5 0 0 .5 -8.3506e-5 -.00028382)" gradientUnits="userSpaceOnUse">
        <stop stop-color="#eef4fc" offset="0"/>
        <stop stop-color="#fff" offset="1"/>
    </linearGradient>
    <path d="m39.746 27.174c-5.6504 0.0059-10.779 3.3027-13.133 8.4395-1.5313-0.78906-3.2266-1.2031-4.9492-1.207-5.707 0.0078-10.434 4.4336-10.813 10.129-0.01172 0-0.02539 0-0.03711-2e-3 -2.9648 0-5.5098 1.7871-6.627 4.3398h-0.60547v0.62695c0 5.5 3.918 9.5 9.418 9.5h36c7 0 11-4.5 11-11v-0.57227h-0.51172c-0.87696-2.4746-2.8242-4.4199-5.3008-5.291 0.0117-0.16406 0.01955-0.33008 0.0254-0.4961 0-7.9902-6.4766-14.467-14.467-14.467z" fill="#dceafa" stroke-width=".5"/>
    <path d="m39.746 24.031c-5.6504 0.0059-10.779 3.3027-13.133 8.4395-1.5313-0.78906-3.2266-1.2031-4.9492-1.207-5.707 0.0059-10.434 4.4336-10.813 10.129-0.01172-2e-3 -0.02539-2e-3 -0.03711-2e-3 -3.9941 0-7.2344 3.2383-7.2344 7.2324 0 3.9961 3.2402 7.2344 7.2344 7.2344h40.506c4.793 0 8.6797-3.8867 8.6797-8.6797-4e-3 -3.6856-2.334-6.9668-5.8125-8.1836 0.0117-0.16602 0.01955-0.33203 0.0254-0.4961 0-7.9902-6.4766-14.467-14.467-14.467z" fill="url(#a)" stroke-width=".5"/>
</svg>
